app/static/img/logotype.svg

<?xml version="1.0" encoding="UTF-8"?>
<svg width="500px" height="150px" viewBox="0 0 500 150" version="1.1" xmlns="http://www.w3.org/2000/svg" xmlns:xlink="http://www.w3.org/1999/xlink">
  <g stroke="none" stroke-width="1" fill="none" fill-rule="evenodd">
    <g id="BitcoinCashNode-3Reversed-for-Corentin_White" transform="translate(-285.000000, -267.000000)" fill="#F2F2F2" fill-rule="nonzero">
      <g id="logotype" transform="translate(285.000000, 267.000000)">
        <g id="node">
          <path d="M112.735443,64.0189514 L112.735443,146.666656 C112.735443,148.507629 111.243072,150 109.40213,150 L95.4325561,150 C93.5916137,150 92.0992431,148.507629 92.0992431,146.666656 L92.0992431,64.0189514 C92.0992431,61.70578 90.2066345,59.8132019 87.8934631,59.8132019 L24.84198,59.8132019 C22.5288086,59.8132019 20.6362305,61.70578 20.6362305,64.0189514 L20.6362305,146.666656 C20.6362305,148.507629 19.1438294,150 17.302887,150 L3.3333435,150 C1.4923706,150 0,148.507629 0,146.666656 L0,42.5102844 C0,40.669342 1.4923706,39.1769714 3.3333435,39.1769714 L87.8934631,39.1769714 C101.613312,39.1769714 112.735443,50.2991028 112.735443,64.0189514 Z" id="Path"></path>
          <path d="M218.388763,39.1769714 C232.144959,39.1769714 243.226868,50.2588806 243.226868,64.0189514 L243.226868,125.161896 C243.226868,138.918091 232.144959,150 218.388763,150 L155.333405,150 C141.577209,150 130.4953,138.918091 130.4953,125.161896 L130.4953,64.0189515 C130.4953,50.2588807 141.57721,39.1769714 155.333405,39.1769714 L218.388763,39.1769714 L218.388763,39.1769714 Z M155.333404,59.8132019 C153.040039,59.8132019 151.1315,61.7256165 151.1315,64.0189514 L151.1315,125.161896 C151.1315,127.455231 153.040039,129.36377 155.333404,129.36377 L218.388763,129.36377 C220.682098,129.36377 222.590637,127.455231 222.590637,125.161896 L222.590637,64.0189514 C222.590637,61.7256164 220.682098,59.8132019 218.388763,59.8132019 L155.333404,59.8132019 Z" id="Shape"></path>
          <path d="M370.083862,3.3333435 L370.083862,146.666657 C370.083862,148.507629 368.591492,150 366.750549,150 L282.19043,150 C268.472717,150 257.352295,138.879608 257.352295,125.161896 L257.352295,64.0189515 C257.352295,50.2991029 268.474426,39.1769715 282.194275,39.1769715 L349.447632,39.1769715 L349.447632,3.3333436 C349.447632,1.4923707 350.940063,1.00000079e-07 352.781006,1.00000079e-07 L366.750549,1.00000079e-07 C368.591492,1.00000079e-07 370.083862,1.4923706 370.083862,3.3333435 Z M345.245789,129.363769 C347.556824,129.363769 349.447632,127.472931 349.447632,125.161896 L349.447632,64.0189514 C349.447632,61.70578 347.555054,59.8132019 345.241882,59.8132019 L282.19043,59.8132019 C279.877258,59.8132019 277.98468,61.70578 277.98468,64.0189514 L277.98468,125.161896 C277.98468,127.472931 279.875488,129.363769 282.186524,129.363769 L345.245789,129.363769 Z" id="Shape"></path>
          <path d="M500,64.0150757 L500,101.573273 C500,103.414215 498.507629,104.906586 496.666687,104.906586 L407.904663,104.906586 L407.904663,125.161896 C407.904663,127.472931 409.795532,129.36377 412.106506,129.36377 L496.666687,129.36377 C498.50763,129.36377 500,130.856171 500,132.697113 L500,146.666657 C500,148.507629 498.507629,150 496.666687,150 L412.106506,150 C398.388855,150 387.268433,138.879608 387.268433,125.161896 L387.268433,64.0189515 C387.268433,50.2991029 398.390564,39.1769715 412.110413,39.1769715 L475.161865,39.1769715 C488.879578,39.1769715 500,50.2973633 500,64.0150757 Z M479.363769,84.2703552 L479.363769,64.0189514 C479.363769,61.70578 477.471191,59.8132019 475.15802,59.8132019 L412.106506,59.8132019 C409.795532,59.8132019 407.904663,61.7040405 407.904663,64.0150757 L407.904663,84.2703552 L479.363769,84.2703552 L479.363769,84.2703552 Z" id="Shape"></path>
        </g>
        <g id="bitcoincash">
          <path d="M23.9941101,9.7225342 C23.9941101,10.3822937 23.8895874,10.971405 23.6465759,11.4927063 C24.4447937,12.3262329 25,13.5411987 25,14.7914734 L25,20.1740418 C25,22.8469849 22.8130798,25 20.1387329,25 L0,25 L0,0 L19.166748,0 C21.8057861,0 23.9941101,2.1530151 23.9941101,4.8259583 L23.9941101,9.7225342 Z M4.8259583,4.5829468 C4.6875,4.5829468 4.5829468,4.6875 4.5829468,4.8259583 L4.5829468,9.7225342 C4.5829468,9.8609925 4.6875,9.9655152 4.8259583,9.9655152 L19.1667481,9.9655152 C19.2713013,9.9655152 19.3758545,9.8609925 19.3758545,9.7225342 L19.3758545,4.8259583 C19.3758545,4.6875 19.2713013,4.5829468 19.1667481,4.5829468 L4.8259583,4.5829468 Z M20.3817139,14.7914734 C20.3817139,14.6530151 20.278595,14.5838013 20.1387329,14.5838013 L4.8259582,14.5838013 C4.6874999,14.5838013 4.5829467,14.6530152 4.5829467,14.7914734 L4.5829467,20.1740418 C4.5829467,20.3125001 4.6874999,20.4170533 4.8259582,20.4170533 L20.1387329,20.4170533 C20.278595,20.4170533 20.3817139,20.3125001 20.3817139,20.1740418 L20.3817139,14.7914734 Z" id="Shape"></path>
          <polygon id="Path" points="32.2897949 0 36.8727417 0 36.8727417 25 32.2897949 25"></polygon>
          <polygon id="Path" points="67.1140442 0 67.1140442 4.5829468 56.9394226 4.5829468 56.9394226 25 52.3225708 25 52.3225708 4.5829468 42.1140442 4.5829468 42.1140442 0"></polygon>
          <path d="M78.014801,4.5829468 C77.8749389,4.5829468 77.77182,4.6875 77.77182,4.8259583 L77.77182,20.1740418 C77.77182,20.3125001 77.8749389,20.4170533 78.014801,20.4170533 L98.1182251,20.4170533 L98.1182251,24.9999999 L78.014801,24.9999999 C75.3404846,24.9999999 73.1874389,22.8469849 73.1874389,20.1740417 L73.1874389,4.8259582 C73.1874389,2.1530151 75.3404846,-1.00000022e-07 78.014801,-1.00000022e-07 L98.1182251,-1.00000022e-07 L98.1182251,4.5829467 L78.014801,4.5829467 L78.014801,4.5829468 Z" id="Path"></path>
          <path d="M125.302338,0 C127.941345,0 130.128265,2.1530151 130.128265,4.8259583 L130.128265,20.1740418 C130.128265,22.8469849 127.941345,25 125.302338,25 L109.955627,25 C107.281311,25 105.128265,22.846985 105.128265,20.1740418 L105.128265,4.8259583 C105.128265,2.1530152 107.281311,0 109.955627,0 L125.302338,0 Z M125.302338,20.4170532 C125.40686,20.4170532 125.511414,20.3125 125.511414,20.1740417 L125.511414,4.8259582 C125.511414,4.6874999 125.40686,4.5829467 125.302338,4.5829467 L109.955627,4.5829467 C109.815765,4.5829467 109.712646,4.6874999 109.712646,4.8259582 L109.712646,20.1740417 C109.712646,20.3125 109.815765,20.4170532 109.955627,20.4170532 L125.302338,20.4170532 Z" id="Shape"></path>
          <polygon id="Path" points="137.453369 0 142.036346 0 142.036346 25 137.453369 25"></polygon>
          <polygon id="Path" points="168.911041 0 173.529327 0 173.529327 25 168.528198 25 153.112274 6.666748 153.112274 25 148.527924 25 148.527924 0 153.529053 0 168.911041 18.333252 168.911041 0"></polygon>
          <path d="M185.71286,4.5829468 C185.572998,4.5829468 185.469879,4.6875 185.469879,4.8259583 L185.469879,20.1740418 C185.469879,20.3125001 185.572998,20.4170533 185.71286,20.4170533 L205.816284,20.4170533 L205.816284,24.9999999 L185.71286,24.9999999 C183.038544,24.9999999 180.885498,22.8469849 180.885498,20.1740417 L180.885498,4.8259582 C180.885498,2.1530151 183.038544,-1.00000022e-07 185.71286,-1.00000022e-07 L205.816284,-1.00000022e-07 L205.816284,4.5829467 L185.71286,4.5829467 L185.71286,4.5829468 Z" id="Path"></path>
          <path d="M233.106323,0 C235.779297,0 237.96759,2.1530151 237.96759,4.8259583 L237.96759,25 L233.349365,25 L233.349365,16.5969849 L217.550568,16.5969849 L217.550568,25 L212.967621,25 L212.967621,4.8259583 C212.967621,2.1530152 215.119232,0 217.793579,0 L233.106323,0 Z M233.349365,12.0140076 L233.349365,4.8259583 C233.349365,4.6875 233.244812,4.5829468 233.106323,4.5829468 L217.793579,4.5829468 C217.655121,4.5829468 217.550568,4.6875 217.550568,4.8259583 L217.550568,12.0140076 L233.349365,12.0140076 Z" id="Shape"></path>
          <path d="M270.222107,6.7359924 L265.603821,6.7359924 L265.603821,4.8259582 C265.603821,4.6874999 265.499268,4.5829467 265.394714,4.5829467 L250.048035,4.5829467 C249.909607,4.5829467 249.805054,4.6874999 249.805054,4.8259582 L249.805054,9.9655151 C249.805054,10.1039734 249.909607,10.2085266 250.048035,10.2085266 L265.394714,10.2085266 C268.033752,10.2085266 270.222107,12.3615417 270.222107,15.0344849 L270.222107,20.1740418 C270.222107,22.8469849 268.033753,24.9999999 265.394714,24.9999999 L250.048035,24.9999999 C247.373718,24.9999999 245.220642,22.846985 245.220642,20.1740418 L245.220642,18.2640076 L249.805054,18.2640076 L249.805054,20.1740418 C249.805054,20.3125001 249.909607,20.4170533 250.048035,20.4170533 L265.394714,20.4170533 C265.499268,20.4170533 265.603821,20.3125001 265.603821,20.1740418 L265.603821,15.0344849 C265.603821,14.8960266 265.499268,14.7914734 265.394714,14.7914734 L250.048035,14.7914734 C247.373718,14.7914734 245.220642,12.6384583 245.220642,9.9655151 L245.220642,4.8259582 C245.220642,2.1530151 247.373718,-1.00000022e-07 250.048035,-1.00000022e-07 L265.394714,-1.00000022e-07 C268.033752,-1.00000022e-07 270.222107,2.153015 270.222107,4.8259582 L270.222107,6.7359924 L270.222107,6.7359924 Z" id="Path"></path>
          <polygon id="Path" points="302.99646 0 302.99646 25 298.413513 25 298.413513 14.7914734 282.02417 14.7914734 282.02417 25 277.441223 25 277.441223 0 282.02417 0 282.02417 10.2085266 298.413513 10.2085266 298.413513 0"></polygon>
        </g>
      </g>
    </g>
  </g>
</svg>

<svg width="500" height="150" xmlns="http://www.w3.org/2000/svg"><g fill="#F2F2F2" fill-rule="nonzero"><path d="M112.735 64.019v82.648a3.333 3.333 0 0 1-3.333 3.333h-13.97a3.333 3.333 0 0 1-3.333-3.333V64.019a4.218 4.218 0 0 0-4.206-4.206H24.842a4.218 4.218 0 0 0-4.206 4.206v82.648A3.333 3.333 0 0 1 17.303 150H3.333A3.333 3.333 0 0 1 0 146.667V42.51a3.333 3.333 0 0 1 3.333-3.333h84.56c13.72 0 24.842 11.122 24.842 24.842zM218.389 39.177c13.756 0 24.838 11.082 24.838 24.842v61.143A24.789 24.789 0 0 1 218.389 150h-63.056a24.789 24.789 0 0 1-24.838-24.838V64.019c0-13.76 11.082-24.842 24.838-24.842h63.056zm-63.056 20.636c-2.293 0-4.202 1.913-4.202 4.206v61.143c0 2.293 1.909 4.202 4.202 4.202h63.056c2.293 0 4.202-1.909 4.202-4.202V64.019c0-2.293-1.909-4.206-4.202-4.206h-63.056zM370.084 3.333v143.334A3.333 3.333 0 0 1 366.75 150h-84.56c-13.718 0-24.839-11.12-24.839-24.838V64.019c0-13.72 11.122-24.842 24.842-24.842h67.254V3.333A3.333 3.333 0 0 1 352.78 0h13.97a3.333 3.333 0 0 1 3.333 3.333zm-24.838 126.03a4.214 4.214 0 0 0 4.202-4.201V64.019a4.218 4.218 0 0 0-4.206-4.206H282.19a4.218 4.218 0 0 0-4.205 4.206v61.143a4.214 4.214 0 0 0 4.202 4.202h63.059zM500 64.015v37.558a3.333 3.333 0 0 1-3.333 3.334h-88.762v20.255a4.214 4.214 0 0 0 4.202 4.202h84.56a3.333 3.333 0 0 1 3.333 3.333v13.97a3.333 3.333 0 0 1-3.333 3.333h-84.56c-13.718 0-24.839-11.12-24.839-24.838V64.019c0-13.72 11.123-24.842 24.842-24.842h63.052c13.718 0 24.838 11.12 24.838 24.838zM479.364 84.27V64.02a4.218 4.218 0 0 0-4.206-4.206h-63.051a4.214 4.214 0 0 0-4.202 4.202V84.27h71.459z"/><g><path d="M23.994 9.723c0 .66-.104 1.248-.347 1.77.798.833 1.353 2.048 1.353 3.298v5.383C25 22.847 22.813 25 20.139 25H0V0h19.167c2.639 0 4.827 2.153 4.827 4.826v4.897zM4.826 4.583a.238.238 0 0 0-.243.243v4.897c0 .138.104.243.243.243h14.34c.105 0 .21-.105.21-.243V4.826c0-.138-.105-.243-.21-.243H4.827zM20.382 14.79c0-.138-.103-.207-.243-.207H4.826c-.139 0-.243.069-.243.207v5.383c0 .139.104.243.243.243h15.313c.14 0 .243-.104.243-.243v-5.383zM32.29 0h4.583v25H32.29zM67.114 0v4.583H56.939V25h-4.616V4.583H42.114V0zM78.015 4.583a.237.237 0 0 0-.243.243v15.348c0 .139.103.243.243.243h20.103V25H78.015a4.817 4.817 0 0 1-4.828-4.826V4.826A4.817 4.817 0 0 1 78.015 0h20.103v4.583H78.015zM125.302 0c2.64 0 4.826 2.153 4.826 4.826v15.348c0 2.673-2.187 4.826-4.826 4.826h-15.346a4.817 4.817 0 0 1-4.828-4.826V4.826A4.817 4.817 0 0 1 109.956 0h15.346zm0 20.417c.105 0 .21-.105.21-.243V4.826c0-.139-.105-.243-.21-.243h-15.346a.237.237 0 0 0-.243.243v15.348c0 .139.103.243.243.243h15.346zM137.453 0h4.583v25h-4.583zM168.911 0h4.618v25h-5L153.111 6.667V25h-4.584V0h5.001l15.382 18.333V0zM185.713 4.583a.237.237 0 0 0-.243.243v15.348c0 .139.103.243.243.243h20.103V25h-20.103a4.817 4.817 0 0 1-4.828-4.826V4.826A4.817 4.817 0 0 1 185.713 0h20.103v4.583h-20.103zM233.106 0c2.673 0 4.862 2.153 4.862 4.826V25h-4.619v-8.403h-15.798V25h-4.583V4.826A4.815 4.815 0 0 1 217.794 0h15.312zm.243 12.014V4.826a.238.238 0 0 0-.243-.243h-15.312a.238.238 0 0 0-.243.243v7.188h15.798zM270.222 6.736h-4.618v-1.91c0-.139-.105-.243-.21-.243h-15.346a.238.238 0 0 0-.243.243v5.14c0 .138.105.243.243.243h15.347c2.639 0 4.827 2.153 4.827 4.825v5.14c0 2.673-2.188 4.826-4.827 4.826h-15.347a4.817 4.817 0 0 1-4.827-4.826v-1.91h4.584v1.91c0 .139.105.243.243.243h15.347c.104 0 .209-.104.209-.243v-5.14c0-.138-.105-.243-.21-.243h-15.346a4.817 4.817 0 0 1-4.827-4.825v-5.14A4.817 4.817 0 0 1 250.048 0h15.347c2.639 0 4.827 2.153 4.827 4.826v1.91zM302.996 0v25h-4.582V14.791h-16.39V25h-4.583V0h4.583v10.209h16.39V0z"/></g></g></svg>
